X: 255
T:Red Stocking
% Nottingham Music Database
S:Kevin Briggs, via EF
Y:AB
M:6/8
K:G
P:A
(3D/2E/2F/2|"G"GBA G2B|"G"def "D7"gdB|"G"GBA G2B|"D7"AFD AFD|
"G"GBA G2B|"G"def gfg|"C"ecA "G"dBG|"D7"FEF "G"G2:|
P:B
B/2d/2|"Em"efe edB|"Em"def gfg|"Em"efe edB|"D"dBA A2d|
"Em"efe edB|"Em"def gfg|"C"ecA "G"dBG|"D7"FEF "G"G2:|


